!!!COM:	Johannes Ockeghem
!!!CDT:	~1425-1497/02/06
!!!OPR:	Missa Ecce ancilla Domini
!!!ONM:	1
!!!OTL:	Kyrie
!!!AGN:	Mass; Kyrie
!!!SCT:	Ock1006a
!!!SCA:	Ock1006a
!!!voices:	4
!!!voices-OPR:	4
**kern	**kern	**kern	**kern
*staff4	*staff3	*staff2	*staff1
*Ivox	*Ivox	*Ivox	*Ivox
*I"Bassus	*I"Tenor	*I"Contratenor	*I"Discantus
*I'B	*I'T	*I'Ct	*I'D
*>[A,B,C]	*>[A,B,C]	*>[A,B,C]	*>[A,B,C]
*>A	*>A	*>A	*>A
*clefF4	*clefGv2	*clefGv2	*clefG2
*k[]	*k[]	*k[]	*k[]
*M3/1	*M3/1	*M3/1	*M3/1
*met(O)	*met(O)	*met(O)	*met(O)
!!section: Kyrie I
!!!OMD: Kyrie I
=1-	=1-	=1-	=1-
0.r	0.r	1.G	0.g
.	.	2A/	.
.	.	1B	.
=2	=2	=2	=2
0.r	0.r	[0.c	1.g
.	.	.	2a/
.	.	.	2g/
.	.	.	[2a/
=3	=3	=3	=3
0.r	0.r	0.c]	4a/]
.	.	.	4g/
.	.	.	1e
.	.	.	2.a/
.	.	.	4g/
.	.	.	[2a/
=4	=4	=4	=4
0.r	0.r	2B\	4a/]
.	.	.	4g/
.	.	2c\	2e/
.	.	2d\	2d/
.	.	1d	2f/
.	.	.	1e
.	.	2c#i\	.
=5	=5	=5	=5
0.r	0.r	0d	1d
.	.	.	1r
.	.	1B	1g
=6	=6	=6	=6
0.r	0.r	1c	1a
.	.	1.d	1.b
.	.	4c\	4a/
.	.	4B\	4b\
=7	=7	=7	=7
0.r	0.r	2A/	2cc\
.	.	2G/	2b\
.	.	1B	2.g/
.	.	.	4a/
.	.	2A/	2f/
.	.	2c\	2e/
=8	=8	=8	=8
0.r	0.r	2d\	2d/
.	.	2e\	2g/
.	.	2r	2a/
.	.	2d\	2b\
.	.	2e\	2.cc\
.	.	[2c\	.
.	.	.	4b\
=9	=9	=9	=9
0.r	0.r	2c\]	2g/
.	.	4B\	2a/
.	.	4A/	.
.	.	2G/	2b-\
.	.	2A/	1a
.	.	1B-i	.
.	.	.	2g/
=10	=10	=10	=10
0.r	0.r	0.A	0a
.	.	.	1r
=11	=11	=11	=11
0.r	[0.d	1.D	1.f
.	.	2E/	2g/
.	.	1F	1a
=12	=12	=12	=12
0.r	0.d]	1G	1b-i
.	.	1D	2a/
.	.	.	1a
.	.	2r	.
.	.	2D/	2f/
=13	=13	=13	=13
0.r	1c	2.E/	1e
.	.	4F/	.
.	1B	2G/	2d/
.	.	2E/	2g/
.	[1d	1D	2f/
.	.	.	2a/
=14	=14	=14	=14
0.r	1d]	2G/	2g/
.	.	2D/	1a
.	0d	2F/	.
.	.	2.G/	2g/
.	.	.	2f/
.	.	4A/	.
.	.	2B\	2d/
=15	=15	=15	=15
0.r	1e	1A	1c
.	2d\	2B\	2d/
.	2B\	2d\	2f/
.	1c	1A	1e
=16	=16	=16	=16
0.r	1d	2r	1d
.	.	1B-	.
.	0d	.	1r
.	.	4A/	.
.	.	4G/	.
*	*	*M3/1	*
*	*	*met(3)	*
.	.	3F/	1r
.	.	3G/	.
.	.	3E/	.
=17	=17	=17	=17
*	*	*M3/1	*
*	*	*met(O)	*
0GG	[0.G	2.G/	2.B/
.	.	4A/	4c/
.	.	1B	1d
1C	.	1c	1e
=18	=18	=18	=18
2BB/	0G]	2r	2d/
1C	.	1c	2c/
.	.	.	2e/
2D\	.	2B\	1d
1E	1r	1G	.
.	.	.	2c/
=19	=19	=19	=19
0.D	0F	1A	2d/
.	.	.	2f/
.	.	2B-i\	2g/
.	.	2A/	1a
.	1A	1F	.
.	.	.	2f/
=20	=20	=20	=20
2C/	0c	2G/	2e/
2F\	.	2A/	2f/
2E\	.	2r	2g/
2F\	.	2A/	2f/
2G\	2B\	2G/	2d/
2F\	2c\	[2A/	[2f/
=21	=21	=21	=21
1D	2d\	2A/]	4f/]
.	.	.	4g/
.	2c\	1F	0a
1r	1A	.	.
.	.	2D/	.
1GG	1B	1G	.
.	.	.	2g/
=22	=22	=22	=22
1D	1A	2r	0a
.	.	2d\	.
2.F\	2r	2.c\	.
.	2.c\	.	.
4E\	.	4d\	.
1C	.	1e	2g/
.	4B\	.	.
.	4A/	.	[2cc\
.	4G/	.	.
=23	=23	=23	=23
1F	2d\	2A/	4cc\]
.	.	.	4b\
.	4c\	2F/	2a/
.	4B\	.	.
1G	2G/	1E	4b\
.	.	.	4g/
.	2B\	.	2g/
1D	1A	1F	4f#i/
.	.	.	2f#i/
.	.	.	4e/
=24	=24	=24	=24
0.GGl	0.Gl	2r	0.gl
.	.	1BB-	.
.	.	2C/	.
.	.	1Dl	.
!!LO:LB:i:g=z
=25||	=25||	=25||	=25||
*>B	*>B	*>B	*>B
*clefF4	*clefGv2	*clefGv2	*clefG2
*k[]	*k[]	*k[]	*k[]
*M2/1	*M2/1	*M2/1	*M2/1
*met(C|)	*met(C|)	*met(C|)	*met(C|)
!!section: Christe
!!!OMD: Christe
0r	0r	0G	[0g
=26	=26	=26	=26
0r	0r	[0c	1g]
.	.	.	[1a
=27	=27	=27	=27
0r	0r	0c_	2a/]
.	.	.	4g/
.	.	.	4f/
.	.	.	[1e
=28	=28	=28	=28
0r	0r	0c_	2e/]
.	.	.	4d/
.	.	.	4c/
.	.	.	1g
=29	=29	=29	=29
0r	0r	0c]	1a
.	.	.	[1g
=30	=30	=30	=30
0r	0r	1e	1g]
.	.	1c	[1cc
=31	=31	=31	=31
0r	0r	0d	2cc\]
.	.	.	4b\
.	.	.	4a/
.	.	.	1b
=32	=32	=32	=32
0r	0r	[0c	2r
.	.	.	1e
.	.	.	4f/
.	.	.	4g/
=33	=33	=33	=33
0r	0r	0c]	1a
.	.	.	2g/
.	.	.	2e/
=34	=34	=34	=34
0r	0r	1d	1f
.	.	1c	1e
=35	=35	=35	=35
0r	0r	2A/	2f/
.	.	2B\	1g
.	.	1c	.
.	.	.	2e/
=36	=36	=36	=36
0r	0r	2B\	2.d/
.	.	2G/	.
.	.	.	4B/
.	.	2A/	2A/
.	.	[2B\	[2G/
=37	=37	=37	=37
0r	0r	2B\]	2G/]
.	.	1G	2B/
.	.	.	1A
.	.	2F#i/	.
=38	=38	=38	=38
0r	0r	1G	2r
.	.	.	2G/
.	.	2r	2A/
.	.	2G/	2B/
=39	=39	=39	=39
0r	0r	2A/	2c/
.	.	2B\	2d/
.	.	2.c\	2.e/
.	.	4A/	4f/
=40	=40	=40	=40
0r	0r	2B\	2d/
.	.	2c\	2.c/
.	.	2A/	.
.	.	.	4d/
.	.	2G/	4e/
.	.	.	4f/
=41	=41	=41	=41
0r	0r	2F/	2d/
.	.	2G/	2g/
.	.	2A/	2f/
.	.	2G/	2g/
=42	=42	=42	=42
0r	0r	2c\	2a/
.	.	2B\	2g/
.	.	2G/	2r
.	.	2A/	2cc\
=43	=43	=43	=43
0r	0r	2G/	2b\
.	.	2.c\	2g/
.	.	.	2a/
.	.	8B\L	.
.	.	8c\J	.
.	.	2d\	[2b\
=44	=44	=44	=44
0r	0r	2G/	4b\]
.	.	.	4g/
.	.	2B\	1g
.	.	1A	.
.	.	.	2f#i/
=45	=45	=45	=45
0r	0r	0G	0g
=46	=46	=46	=46
0r	0G	0B	1r
.	.	.	1e
=47	=47	=47	=47
0r	1A	1c	1f
.	1G	[1d	1g
=48	=48	=48	=48
0r	1D	2d\]	2f/
.	.	2c\	1a
.	2D/	2A/	.
.	[2G/	[2B\	2g/
=49	=49	=49	=49
0r	2G/]	2B\]	2e/
.	2A/	2c\	2c/
.	1B	1G	1d
=50	=50	=50	=50
0r	1c	1.A	0c
.	1A	.	.
.	.	[2F/	.
=51	=51	=51	=51
0r	1F	2F/]	0r
.	.	2D/	.
.	1G	1C	.
=52	=52	=52	=52
0r	0A	1r	0cc
.	.	1F	.
=53	=53	=53	=53
0r	1G	1G	1b
.	[1c	1E	1g
=54	=54	=54	=54
0r	1c]	1F	2a/
.	.	.	1a
.	1B	1D	.
.	.	.	4g/
.	.	.	4f/
=55	=55	=55	=55
0r	[0c	0C	1e
.	.	.	1g
=56	=56	=56	=56
0r	0c]	1F	1a
.	.	1C	[1cc
=57	=57	=57	=57
0r	0d	0G	1cc]
.	.	.	1b
=58	=58	=58	=58
0r	[0c	0C	1.cc
.	.	.	2b\
=59	=59	=59	=59
0r	0c]	1F	2a/
.	.	.	2g/
.	.	1E	1g
=60	=60	=60	=60
0r	1B	1D	1r
.	1A	[1F	[1a
=61	=61	=61	=61
1r	1.c	2F/]	2a/]
.	.	2E/	2g/
1C	.	1C	1e
.	2B\	.	.
=62	=62	=62	=62
1BB	1G	1D	1d
1AA	[1A	[1E	1c
=63	=63	=63	=63
1.C	1A]	1E]	1.e
.	[1G	1r	.
2BB/	.	.	2d/
=64	=64	=64	=64
1GG	1G]	1D	1B
1AA	1F	1C	2r
.	.	.	2c/
=65	=65	=65	=65
0GG	0G	2D/	2B/
.	.	2.E/	1e
.	.	4F/	.
.	.	2G/	[2d/
=66	=66	=66	=66
1r	0D	2A/	2d/]
.	.	1F	2B/
1D	.	.	1A
.	.	4E/	.
.	.	4F/	.
=67	=67	=67	=67
1.E	1.G	1G	1G
.	.	1C	1c
2F\	2A/	.	.
=68	=68	=68	=68
1D	1B	1F	1d
1C	1c	1G	1e
=69	=69	=69	=69
1.D	1A	2r	2.f/
.	.	1F	.
.	.	.	4g/
.	2F/	.	2a/
2E\	2G/	2C/	2g/
=70	=70	=70	=70
1F	1A	2c\	2r
.	.	2d\	2f/
1C	2G/	1e	2g/
.	[2c\	.	2e/
=71	=71	=71	=71
1D	2c\]	1d	2.f/
.	2B\	.	.
.	.	.	4g/
1r	2c\	2A/	2a/
.	[2d\	2G/	[2b-\
=72	=72	=72	=72
1D	2d\]	1F	2b-\]
.	2c\	.	1a
1GG	1B	1G	.
.	.	.	2g/
=73	=73	=73	=73
2.D\	0A	1r	1.a
4E\	.	.	.
1F	.	2c\	.
.	.	2d\	2f/
=74	=74	=74	=74
2E\	1c	1e	2g/
2C/	.	.	2e/
2r	2B\	[1d	2f/
[2G\	2G/	.	[2g/
=75	=75	=75	=75
4G\]	1A	1d]	2g/]
4F\	.	.	.
2D\	.	.	2f/
2E\	[1G	2B\	2.g/
2C/	.	2c\	.
.	.	.	4f/
=76	=76	=76	=76
2BB/	1G]	2d\	2d/
2C/	.	2e\	2c/
1D	1F	4d\	1f
.	.	2B\	.
.	.	4A/	.
=77	=77	=77	=77
0C	1G	[0cl	1e
.	1G	.	1g
=78	=78	=78	=78
0F	0A	0c_	0f
=79	=79	=79	=79
0Cl	0Gl	0c]	0el
!!LO:LB:i:g=z
=80||	=80||	=80||	=80||
*>C	*>C	*>C	*>C
*clefF4	*clefGv2	*clefGv2	*clefG2
*k[]	*k[]	*k[]	*k[]
*M3/1	*M3/1	*M3/1	*M3/1
*met(O)	*met(O)	*met(O)	*met(O)
!!section: Kyrie II
!!!OMD: Kyrie II
0.r	0.r	[0.e	1.g
.	.	.	2a/
.	.	.	1b
=81	=81	=81	=81
0.r	0.r	0e]	1cc
.	.	.	2b\
.	.	.	2g/
.	.	2c\	1a
.	.	2d\	.
=82	=82	=82	=82
0.r	0.r	1e	1g
.	.	2r	2a/
.	.	1e	2cc\
.	.	.	4b\
.	.	.	2b\
.	.	4d\	.
.	.	4c\	8a/L
.	.	.	8g/J
=83	=83	=83	=83
0.r	0.r	2.d\	2f/
.	.	.	2.a/
.	.	4c\	.
.	.	2d\	.
.	.	.	4g/
.	.	2B\	2.g/
.	.	1A	.
.	.	.	4e/
.	.	.	8f/L
.	.	.	8e/
.	.	.	8d/
.	.	.	8c/J
=84	=84	=84	=84
0.r	0.r	2G/	2B/
.	.	2A/	2f/
.	.	2E/	2g/
.	.	2G/	1e
.	.	1F	.
.	.	.	2d/
=85	=85	=85	=85
0.r	0.r	1.E	1e
.	.	.	1r
.	.	2F/	.
.	.	1G	1b
=86	=86	=86	=86
0.r	0.r	1A	1cc
.	.	2G/	2b\
.	.	2.A/	1a
.	.	4B\	.
.	.	[2c\	2g/
=87	=87	=87	=87
0.r	1r	2c\]	1a
.	.	2A/	.
.	1r	1G	1.b
.	[1G	1d	.
.	.	.	4a/
.	.	.	4g/
=88	=88	=88	=88
0.r	2G/]	1e	1g
.	2E/	.	.
.	2F/	2d\	2a/
.	2G/	2B\	2g/
.	1A	1c	1cc
=89	=89	=89	=89
0.r	2G/	1d	2b\
.	2F/	.	2.a/
.	1G	2B\	.
.	.	.	4g/
.	.	2G/	1g
.	1D	1A	.
.	.	.	2f#i/
=90	=90	=90	=90
0.r	2r	1G	1.g
.	1E	.	.
.	.	1c	.
.	2F/	.	4f/
.	.	.	4e/
.	1G	1B	1d
=91	=91	=91	=91
0.r	0.A	2r	2.c/
.	.	1c	.
.	.	.	4d/
.	.	.	2e/
.	.	2F/	2.f/
.	.	2.c\	.
.	.	.	4e/
.	.	.	2f/
.	.	4d\	.
=92	=92	=92	=92
0.r	2G/	2e\	2g/
.	2F/	2f\	2c/
.	1G	1d	2r
.	.	.	2g/
.	2r	2f\	2a/
.	2c\	2e\	[2g/
=93	=93	=93	=93
0.r	2B\	2d\	2g/]
.	2A/	2f\	2a/
.	1c	2e\	2g/
.	.	2c\	1cc
.	1G	1d	.
.	.	.	2b\
=94	=94	=94	=94
0.C	1r	2.c\	1.cc
.	.	4d\	.
.	[0c	0e	.
.	.	.	4b\
.	.	.	4a/
.	.	.	1g
=95	=95	=95	=95
0F	0c]	0A	1a
.	.	.	1cc
1G	[1e	1G	2.b\
.	.	.	4a/
=96	=96	=96	=96
1A	1e]	1r	1.a
0B-i	0d	1r	.
.	.	.	1g
.	.	1G	.
.	.	.	4f/
.	.	.	4g/
=97	=97	=97	=97
1.A	[0.e	1.c	1a
.	.	.	1r
2G\	.	2B\	.
1E	.	1G	1b
=98	=98	=98	=98
1G	1e]	1B	1g
0F	2d\	2d\	1.a
.	1d	4c\	.
.	.	4B\	.
.	.	1A	.
.	2c\	.	2b\
=99	=99	=99	=99
1E	1e	1G	2cc\
.	.	.	2b\
2G\	2r	2E/	2g/
2F\	1A	2D/	1a
1D	.	1F	.
.	2B\	.	2f/
=100	=100	=100	=100
0.C	2.c\	2G/	2e/
.	.	2A/	2.a/
.	4d\	.	.
.	0e	1c	.
.	.	.	4g/
.	.	.	2g/
.	.	2A/	2a/
.	.	[2G/	2cc\
=101	=101	=101	=101
1GG	1d	2G/]	1b
.	.	2D/	.
1r	2B\	2G/	2g/
.	2c\	2C/	1a
1r	1A	1D	.
.	.	.	2f/
=102	=102	=102	=102
1G	0.r	2E/	2g/
.	.	2C/	1e
2E\	.	2G/	.
2F\	.	1A	2c/
1D	.	.	2d/
.	.	2B\	2f/
=103	=103	=103	=103
1C	0c	1c	1e
2F\	.	2A/	2r
2E\	.	2G/	2c/
2D\	2B\	2F/	2.d/
[2F\	2A/	[2A/	.
.	.	.	4c/
=104	=104	=104	=104
4F\]	2.c\	4A/]	1e
4E\	.	4G/	.
2C/	.	2E/	.
.	4B\	.	.
2BB/	0G	2D/	1r
1C	.	2C/	.
.	.	1c	1g
2E\	.	.	.
=105	=105	=105	=105
1D	1A	1.d	2.f/
.	.	.	4e/
0GG	[0G	.	2.g/
.	.	2B\	.
.	.	.	4f/
.	.	1B	1d
=106	=106	=106	=106
0C	0G]	1c	1e
.	.	1r	1c
[1D	[1F	1A	2r
.	.	.	[2f/
=107	=107	=107	=107
1D]	1F]	1B	2f/]
.	.	.	2d/
2C/	2.G/	2c\	2e/
2BB/	.	2d\	2d/
.	4F/	.	.
1GG	2E/	1B	1g
.	[2D/	.	.
=108	=108	=108	=108
2.D\	2D/]	1A	2.f/
.	2d\	.	.
4E\	.	.	4g/
2F\	2c\	2r	2a/
1BB-	1d	1D	1b-i
2C/	4c\	2E/	4a/
.	4B\	.	4g/
=109	=109	=109	=109
2D\	2A/	2F/	2f/
2C/	2c\	4G/	2e/
.	.	2A/	.
2D\	2B\	.	2d/
.	.	4B\	.
2E\	2G/	2c\	1g
1D	1A	1d	.
.	.	.	2f#i/
=110	=110	=110	=110
0.GGl	0.Gl	0.dl	0.gl
==	==	==	==
*-	*-	*-	*-
!!!RDF**kern: l=long note in original notation
!!!RDF**kern: i=editorial accidental
!!!RDF**kern: V=start of tuplet marker
!!!RDF**kern: Z=end of tuplet marker
!!!ENC:	Will Watson 15/04/2012
!!!END:	2012/09/17/
!!!EED:	Jesse Rodin
!!!EEV:	2012/09/17/
!!!ONB:	Translated from MusicXML and edited on 2012/09/17/ by Craig Sapp
!!muse2ps: T^@{OPR}^u^@{ONM}{. }@{OTL}^C^@{COM}^i2I150v85,85,85,100Q8c110
